; generated by Slic3r 0.9.7 on 2013-08-01 at 12:44:43

; layer_height = 0.4
; perimeters = 3
; top_solid_layers = 3
; bottom_solid_layers = 3
; fill_density = 0.4
; perimeter_speed = 30
; infill_speed = 60
; travel_speed = 130
; scale = 1
; nozzle_diameter = 0.5
; filament_diameter = 3
; extrusion_multiplier = 1
; perimeters extrusion width = 0.53mm
; infill extrusion width = 0.53mm
; first layer extrusion width = 0.80mm

M104 S200 ; set temperature
G28 ; home all axes
M109 S200 ; wait for temperature to be reached
G90 ; use absolute coordinates
G21 ; set units to millimeters
G92 E0
M82 ; use absolute distances for extrusion
G1 F1800.000 E-1.00000
G92 E0
G1 Z0.400 F7800.000
G1 X86.840 Y70.057
G1 F1800.000 E1.00000
G1 X87.700 Y69.027 F540.000 E1.05586
G1 X88.350 Y68.347 E1.09502
G1 X89.600 Y67.217 E1.16516
G1 X89.990 Y66.897 E1.18616
G1 X90.400 Y66.597 E1.20731
G1 X92.360 Y65.407 E1.30276
G1 X93.300 Y64.927 E1.34670
G1 X94.790 Y64.317 E1.41372
G1 X95.300 Y64.157 E1.43597
G1 X95.560 Y64.087 E1.44718
G1 X98.100 Y63.597 E1.55486
G1 X98.380 Y63.557 E1.56663
G1 X98.930 Y63.527 E1.58956
G1 X101.260 Y63.557 E1.68656
G1 X101.890 Y63.587 E1.71282
G1 X102.200 Y63.627 E1.72583
G1 X102.810 Y63.757 E1.75179
G1 X105.100 Y64.337 E1.85013
G1 X105.840 Y64.567 E1.88239
G1 X106.080 Y64.667 E1.89321
G1 X108.090 Y65.607 E1.98558
G1 X108.330 Y65.737 E1.99694
G1 X108.780 Y66.027 E2.01923
G1 X110.870 Y67.577 E2.12754
G1 X111.290 Y67.957 E2.15112
G1 X111.690 Y68.367 E2.17497
G1 X113.030 Y69.897 E2.25963
G1 X113.380 Y70.337 E2.28303
G1 X113.690 Y70.797 E2.30612
G1 X114.830 Y72.817 E2.40268
G1 X114.970 Y73.067 E2.41461
G1 X115.210 Y73.597 E2.43883
G1 X115.400 Y74.137 E2.46266
G1 X116.000 Y76.087 E2.54758
G1 X116.140 Y76.617 E2.57040
G1 X116.270 Y77.437 E2.60497
G1 X116.460 Y79.467 E2.68984
G1 X116.490 Y80.097 E2.71609
G1 X116.510 Y110.597 E3.98573
G1 X116.440 Y129.977 E4.79248
G1 X116.360 Y130.787 E4.82636
G1 X116.310 Y131.057 E4.83779
G1 X116.250 Y131.317 E4.84890
G1 X116.090 Y131.837 E4.87155
G1 X115.900 Y132.337 E4.89382
G1 X115.670 Y132.827 E4.91635
G1 X115.400 Y133.297 E4.93891
G1 X115.090 Y133.747 E4.96166
G1 X114.740 Y134.167 E4.98442
G1 X114.170 Y134.737 E5.01797
G1 X113.530 Y135.237 E5.05178
G1 X113.070 Y135.527 E5.07442
G1 X112.350 Y135.887 E5.10793
G1 X111.840 Y136.077 E5.13058
G1 X111.320 Y136.227 E5.15311
G1 X110.520 Y136.377 E5.18699
G1 X109.710 Y136.427 E5.22078
G1 X90.010 Y136.417 E6.04084
G1 X89.470 Y136.377 E6.06338
G1 X88.930 Y136.287 E6.08617
G1 X88.410 Y136.157 E6.10848
G1 X87.890 Y135.987 E6.13125
G1 X87.390 Y135.777 E6.15383
G1 X86.910 Y135.517 E6.17655
G1 X86.240 Y135.077 E6.20992
G1 X86.020 Y134.907 E6.22149
G1 X85.420 Y134.357 E6.25538
G1 X85.060 Y133.947 E6.27809
G1 X84.740 Y133.517 E6.30040
G1 X84.450 Y133.057 E6.32304
G1 X84.080 Y132.327 E6.35711
G1 X83.890 Y131.827 E6.37937
G1 X83.680 Y131.037 E6.41340
G1 X83.590 Y130.507 E6.43578
G1 X83.540 Y129.697 E6.46956
G1 X83.500 Y80.127 E8.53304
G1 X83.540 Y79.417 E8.56264
G1 X83.780 Y77.117 E8.65891
G1 X83.860 Y76.557 E8.68245
G1 X84.070 Y75.747 E8.71729
G1 X84.500 Y74.417 E8.77547
G1 X84.940 Y73.377 E8.82248
G1 X86.040 Y71.267 E8.92153
G1 X86.330 Y70.757 E8.94596
G1 X86.772 Y70.144 E8.97742
G1 X86.840 Y70.057 E8.98201
G1 F1800.000 E7.98201
G92 E0
G1 X109.752 Y113.441 F7800.000
G1 F1800.000 E1.00000
G1 X109.718 Y129.691 F540.000 E1.67643
G1 X90.282 Y129.691 E2.48553
G1 X90.282 Y110.254 E3.29463
G1 X109.388 Y110.194 E4.08998
G1 X109.718 Y110.254 E4.10397
G1 X109.779 Y110.585 E4.11796
G1 X109.752 Y113.441 E4.23687
G1 X109.378 Y114.075 F7800.000
G1 F1800.000 E3.23687
G92 E0
G1 X90.913 Y76.492 F7800.000
G1 F1800.000 E1.00000
G1 X90.485 Y77.818 F540.000 E1.05801
G1 X90.250 Y80.121 E1.15439
G1 X90.432 Y81.854 E1.22691
G1 X91.028 Y83.804 E1.31178
G1 X92.021 Y85.585 E1.39668
G1 X93.362 Y87.122 E1.48157
G1 X94.993 Y88.346 E1.56647
G1 X96.522 Y89.068 E1.63687
G1 X99.477 Y89.694 E1.76261
G1 X101.167 Y89.654 E1.83298
G1 X103.152 Y89.193 E1.91778
G1 X104.748 Y88.495 E1.99030
G1 X106.416 Y87.322 E2.07520
G1 X107.804 Y85.827 E2.16010
G1 X108.850 Y84.077 E2.24499
G1 X109.510 Y82.147 E2.32989
G1 X109.755 Y80.104 E2.41555
G1 X109.568 Y78.071 E2.50052
G1 X108.964 Y76.123 E2.58542
G1 X107.968 Y74.343 E2.67032
G1 X106.623 Y72.810 E2.75522
G1 X104.989 Y71.589 E2.84012
G1 X103.459 Y70.870 E2.91052
G1 X101.166 Y70.291 E3.00897
G1 X99.111 Y70.258 E3.09452
G1 X97.109 Y70.655 E3.17950
G1 X95.867 Y71.167 E3.23541
G1 X94.126 Y72.218 E3.32006
G1 X92.876 Y73.351 E3.39028
G1 X92.019 Y74.383 E3.44610
G1 X90.913 Y76.492 E3.54525
G1 F1800.000 E2.54525
G92 E0
G1 Z0.800 F7800.000
G1 X107.273 Y129.726
G1 F1800.000 E1.00000
G1 X109.610 Y129.727 F1800.000 E1.06874
G1 X109.755 Y129.583 E1.07474
G1 X109.708 Y110.265 E1.64280
G1 X90.292 Y110.265 E2.21373
G1 X90.292 Y129.680 E2.78465
G1 X107.273 Y129.726 E3.28397
G1 X107.722 Y129.987 F7800.000
G1 F1800.000 E2.28397
G92 E0
G1 X92.834 Y73.426 F7800.000
G1 F1800.000 E1.00000
G1 X93.505 Y72.692 F1800.000 E1.02926
G1 X95.161 Y71.501 E1.08924
G1 X97.028 Y70.680 E1.14921
G1 X99.014 Y70.267 E1.20886
G1 X101.120 Y70.287 E1.27077
G1 X103.058 Y70.708 E1.32910
G1 X104.918 Y71.546 E1.38907
G1 X106.562 Y72.753 E1.44905
G1 X107.920 Y74.275 E1.50903
G1 X108.931 Y76.046 E1.56901
G1 X109.553 Y77.989 E1.62898
G1 X109.738 Y79.807 E1.68274
G1 X109.521 Y82.104 E1.75059
G1 X108.869 Y84.037 E1.81056
G1 X107.830 Y85.792 E1.87054
G1 X106.449 Y87.293 E1.93051
G1 X104.786 Y88.474 E1.99049
G1 X102.914 Y89.284 E2.05047
G1 X100.915 Y89.680 E2.11041
G1 X98.875 Y89.664 E2.17038
G1 X96.885 Y89.218 E2.23036
G1 X95.031 Y88.369 E2.29034
G1 X93.394 Y87.152 E2.35031
G1 X92.045 Y85.621 E2.41029
G1 X91.045 Y83.844 E2.47026
G1 X90.441 Y81.897 E2.53021
G1 X90.250 Y80.078 E2.58400
G1 X90.466 Y77.900 E2.64836
G1 X91.106 Y75.963 E2.70833
G1 X92.134 Y74.201 E2.76831
G1 X92.834 Y73.426 E2.79903
G1 F1800.000 E1.79903
G92 E0
G1 Z1.200 F7800.000
G1 X107.273 Y129.726
G1 F1800.000 E1.00000
G1 X109.610 Y129.727 F1800.000 E1.06874
G1 X109.755 Y129.583 E1.07474
G1 X109.708 Y110.265 E1.64280
G1 X90.292 Y110.265 E2.21373
G1 X90.292 Y129.680 E2.78465
G1 X107.273 Y129.726 E3.28397
G1 X107.722 Y129.987 F7800.000
G1 F1800.000 E2.28397
G92 E0
G1 X92.890 Y73.404 F7800.000
G1 F1800.000 E1.00000
G1 X93.549 Y72.661 F1800.000 E1.02920
G1 X95.126 Y71.520 E1.08643
G1 X96.990 Y70.692 E1.14641
G1 X98.977 Y70.272 E1.20611
G1 X100.926 Y70.266 E1.26343
G1 X103.020 Y70.695 E1.32629
G1 X104.883 Y71.526 E1.38627
G1 X106.532 Y72.725 E1.44625
G1 X107.896 Y74.242 E1.50622
G1 X108.915 Y76.009 E1.56620
G1 X109.541 Y77.941 E1.62591
G1 X109.750 Y80.078 E1.68905
G1 X109.515 Y82.103 E1.74899
G1 X108.864 Y84.034 E1.80893
G1 X107.826 Y85.789 E1.86887
G1 X106.449 Y87.293 E1.92884
G1 X104.784 Y88.469 E1.98879
G1 X102.913 Y89.278 E2.04873
G1 X100.915 Y89.680 E2.10867
G1 X99.085 Y89.680 E2.16246
G1 X96.887 Y89.213 E2.22854
G1 X95.031 Y88.368 E2.28852
G1 X93.394 Y87.152 E2.34849
G1 X92.050 Y85.619 E2.40843
G1 X91.050 Y83.842 E2.46838
G1 X90.485 Y82.103 E2.52217
G1 X90.250 Y80.078 E2.58211
G1 X90.458 Y77.939 E2.64529
G1 X91.089 Y75.999 E2.70527
G1 X92.106 Y74.242 E2.76498
G1 X92.890 Y73.404 E2.79873
G1 F1800.000 E1.79873
G92 E0
G1 Z1.600 F7800.000
G1 X107.273 Y129.726
G1 F1800.000 E1.00000
G1 X109.610 Y129.727 F1800.000 E1.06874
G1 X109.755 Y129.583 E1.07474
G1 X109.708 Y110.265 E1.64280
G1 X90.292 Y110.265 E2.21373
G1 X90.292 Y129.680 E2.78465
G1 X107.273 Y129.726 E3.28397
G1 X107.722 Y129.987 F7800.000
G1 F1800.000 E2.28397
G92 E0
G1 X107.106 Y73.408 F7800.000
G1 F1800.000 E1.00000
G1 X107.870 Y74.211 F1800.000 E1.03261
G1 X108.896 Y75.973 E1.09257
G1 X109.533 Y77.910 E1.15253
G1 X109.737 Y80.214 E1.22055
G1 X109.517 Y82.103 E1.27647
G1 X108.866 Y84.036 E1.33643
G1 X107.828 Y85.790 E1.39638
G1 X106.596 Y87.142 E1.45017
G1 X104.785 Y88.471 E1.51622
G1 X102.913 Y89.280 E1.57618
G1 X100.915 Y89.680 E1.63612
G1 X98.876 Y89.661 E1.69607
G1 X96.886 Y89.215 E1.75603
G1 X95.033 Y88.366 E1.81598
G1 X93.396 Y87.150 E1.87594
G1 X92.048 Y85.620 E1.93590
G1 X91.048 Y83.843 E1.99585
G1 X90.441 Y81.897 E2.05579
G1 X90.250 Y79.877 E2.11546
G1 X90.452 Y77.979 E2.17157
G1 X91.075 Y76.038 E2.23153
G1 X92.088 Y74.268 E2.29149
G1 X93.447 Y72.748 E2.35145
G1 X95.093 Y71.543 E2.41141
G1 X96.952 Y70.707 E2.47137
G1 X98.939 Y70.279 E2.53112
G1 X100.924 Y70.266 E2.58952
G1 X102.980 Y70.685 E2.65121
G1 X104.846 Y71.508 E2.71117
G1 X106.500 Y72.701 E2.77113
G1 X107.106 Y73.408 E2.79851
G1 F1800.000 E1.79851
G92 E0
G1 Z2.000 F7800.000
G1 X107.273 Y129.726
G1 F1800.000 E1.00000
G1 X109.610 Y129.727 F1800.000 E1.06874
G1 X109.755 Y129.583 E1.07474
G1 X109.708 Y110.265 E1.64280
G1 X90.292 Y110.265 E2.21373
G1 X90.292 Y129.680 E2.78465
G1 X107.273 Y129.726 E3.28397
G1 X107.722 Y129.987 F7800.000
G1 F1800.000 E2.28397
G92 E0
G1 X107.107 Y73.407 F7800.000
G1 F1800.000 E1.00000
G1 X107.841 Y74.182 F1800.000 E1.03139
G1 X108.873 Y75.938 E1.09131
G1 X109.518 Y77.871 E1.15123
G1 X109.740 Y80.066 E1.21609
G1 X109.511 Y82.101 E1.27631
G1 X108.861 Y84.032 E1.33623
G1 X107.823 Y85.786 E1.39615
G1 X106.594 Y87.140 E1.44994
G1 X104.782 Y88.465 E1.51593
G1 X102.912 Y89.274 E1.57585
G1 X100.915 Y89.680 E1.63579
G1 X98.876 Y89.658 E1.69573
G1 X96.889 Y89.209 E1.75564
G1 X95.036 Y88.361 E1.81556
G1 X93.401 Y87.145 E1.87548
G1 X92.054 Y85.617 E1.93539
G1 X91.054 Y83.841 E1.99531
G1 X90.485 Y82.103 E2.04910
G1 X90.250 Y80.078 E2.10904
G1 X90.450 Y78.021 E2.16981
G1 X91.065 Y76.078 E2.22973
G1 X92.070 Y74.305 E2.28965
G1 X93.271 Y72.930 E2.34334
G1 X95.060 Y71.570 E2.40944
G1 X96.915 Y70.726 E2.46936
G1 X98.901 Y70.289 E2.52914
G1 X100.923 Y70.266 E2.58860
G1 X102.939 Y70.679 E2.64913
G1 X104.618 Y71.397 E2.70282
G1 X106.300 Y72.545 E2.76270
G1 X107.107 Y73.407 E2.79740
G1 F1800.000 E1.79740
G92 E0
G1 Z2.400 F7800.000
G1 X107.273 Y129.726
G1 F1800.000 E1.00000
G1 X109.610 Y129.727 F1800.000 E1.06874
G1 X109.755 Y129.583 E1.07474
G1 X109.708 Y110.265 E1.64280
G1 X90.292 Y110.265 E2.21373
G1 X90.292 Y129.680 E2.78465
G1 X107.273 Y129.726 E3.28397
G1 X107.722 Y129.987 F7800.000
G1 F1800.000 E2.28397
G92 E0
G1 X107.110 Y73.403 F7800.000
G1 F1800.000 E1.00000
G1 X107.808 Y74.155 F1800.000 E1.03014
G1 X108.847 Y75.905 E1.09000
G1 X109.499 Y77.833 E1.14986
G1 X109.738 Y80.087 E1.21650
G1 X109.502 Y82.098 E1.27605
G1 X108.853 Y84.028 E1.33591
G1 X107.816 Y85.780 E1.39577
G1 X106.590 Y87.137 E1.44956
G1 X104.542 Y88.567 E1.52301
G1 X102.910 Y89.265 E1.57519
G1 X100.915 Y89.680 E1.63513
G1 X98.876 Y89.658 E1.69507
G1 X96.893 Y89.201 E1.75493
G1 X95.042 Y88.353 E1.81479
G1 X93.408 Y87.139 E1.87465
G1 X92.062 Y85.612 E1.93450
G1 X91.063 Y83.838 E1.99436
G1 X90.485 Y82.103 E2.04815
G1 X90.250 Y80.078 E2.10809
G1 X90.452 Y78.063 E2.16763
G1 X91.057 Y76.120 E2.22749
G1 X92.054 Y74.345 E2.28734
G1 X93.246 Y72.963 E2.34102
G1 X95.030 Y71.599 E2.40703
G1 X96.880 Y70.749 E2.46689
G1 X98.863 Y70.303 E2.52668
G1 X100.922 Y70.266 E2.58721
G1 X102.897 Y70.676 E2.64654
G1 X104.580 Y71.383 E2.70022
G1 X106.265 Y72.523 E2.76006
G1 X107.110 Y73.403 E2.79593
G1 F1800.000 E1.79593
G92 E0
G1 Z2.800 F7800.000
G1 X107.273 Y129.726
G1 F1800.000 E1.00000
G1 X109.610 Y129.727 F1800.000 E1.06874
G1 X109.755 Y129.583 E1.07474
G1 X109.708 Y110.265 E1.64280
G1 X90.292 Y110.265 E2.21373
G1 X90.292 Y129.680 E2.78465
G1 X107.273 Y129.726 E3.28397
G1 X107.722 Y129.987 F7800.000
G1 F1800.000 E2.28397
G92 E0
G1 X93.048 Y73.196 F7800.000
G1 F1800.000 E1.00000
G1 X93.554 Y72.657 F1800.000 E1.02174
G1 X95.215 Y71.477 E1.08168
G1 X97.086 Y70.668 E1.14162
G1 X99.085 Y70.265 E1.20158
G1 X101.123 Y70.287 E1.26150
G1 X103.112 Y70.732 E1.32144
G1 X104.965 Y71.581 E1.38138
G1 X106.602 Y72.797 E1.44133
G1 X107.949 Y74.326 E1.50126
G1 X108.950 Y76.102 E1.56120
G1 X109.559 Y78.048 E1.62115
G1 X109.750 Y80.015 E1.67926
G1 X109.506 Y82.034 E1.73906
G1 X108.870 Y83.965 E1.79887
G1 X107.846 Y85.722 E1.85866
G1 X106.583 Y87.132 E1.91432
G1 X104.829 Y88.417 E1.97825
G1 X102.968 Y89.236 E2.03805
G1 X101.123 Y89.658 E2.09371
G1 X99.085 Y89.680 E2.15363
G1 X96.956 Y89.212 E2.21773
G1 X95.226 Y88.446 E2.27339
G1 X93.218 Y86.945 E2.34708
G1 X92.029 Y85.546 E2.40107
G1 X91.097 Y83.893 E2.45687
G1 X90.485 Y82.102 E2.51254
G1 X90.250 Y80.077 E2.57248
G1 X90.454 Y77.987 E2.63424
G1 X91.076 Y76.045 E2.69418
G1 X92.087 Y74.276 E2.75411
G1 X93.048 Y73.196 E2.79660
G1 F1800.000 E1.79660
G92 E0
G1 Z3.200 F7800.000
G1 X107.273 Y129.726
G1 F1800.000 E1.00000
G1 X109.610 Y129.727 F1800.000 E1.06874
G1 X109.755 Y129.583 E1.07474
G1 X109.708 Y110.265 E1.64280
G1 X90.292 Y110.265 E2.21373
G1 X90.292 Y129.680 E2.78465
G1 X107.273 Y129.726 E3.28397
G1 X107.722 Y129.987 F7800.000
G1 F1800.000 E2.28397
G92 E0
G1 X106.938 Y73.173 F7800.000
G1 F1800.000 E1.00000
G1 X107.947 Y74.324 F1800.000 E1.04501
G1 X108.948 Y76.099 E1.10495
G1 X109.559 Y78.048 E1.16500
G1 X109.750 Y80.078 E1.22494
G1 X109.526 Y82.051 E1.28334
G1 X108.886 Y83.986 E1.34328
G1 X107.947 Y85.622 E1.39872
G1 X106.599 Y87.150 E1.45866
G1 X104.963 Y88.366 E1.51860
G1 X103.109 Y89.214 E1.57854
G1 X100.915 Y89.680 E1.64451
G1 X98.929 Y89.664 E1.70292
G1 X96.937 Y89.229 E1.76285
G1 X95.080 Y88.390 E1.82279
G1 X93.437 Y87.183 E1.88273
G1 X92.172 Y85.786 E1.93817
G1 X91.134 Y84.031 E1.99811
G1 X90.485 Y82.103 E2.05794
G1 X90.250 Y80.074 E2.11799
G1 X90.452 Y77.997 E2.17935
G1 X91.050 Y76.103 E2.23776
G1 X92.081 Y74.284 E2.29923
G1 X93.398 Y72.797 E2.35763
G1 X95.080 Y71.555 E2.41911
G1 X96.937 Y70.716 E2.47905
G1 X98.929 Y70.281 E2.53898
G1 X100.915 Y70.265 E2.59739
G1 X102.963 Y70.684 E2.65886
G1 X104.829 Y71.503 E2.71880
G1 X106.485 Y72.692 E2.77874
G1 X106.938 Y73.173 E2.79817
G1 F1800.000 E1.79817
G92 E0
G1 Z3.600 F7800.000
G1 X107.273 Y129.726
G1 F1800.000 E1.00000
G1 X109.610 Y129.727 F1800.000 E1.06874
G1 X109.755 Y129.583 E1.07474
G1 X109.708 Y110.265 E1.64280
G1 X90.292 Y110.265 E2.21373
G1 X90.292 Y129.680 E2.78465
G1 X107.273 Y129.726 E3.28397
G1 X107.722 Y129.987 F7800.000
G1 F1800.000 E2.28397
G92 E0
G1 X93.311 Y72.902 F7800.000
G1 F1800.000 E1.00000
G1 X95.210 Y71.480 F1800.000 E1.06977
G1 X97.081 Y70.669 E1.12971
G1 X99.085 Y70.265 E1.18985
G1 X101.117 Y70.286 E1.24959
G1 X103.106 Y70.730 E1.30953
G1 X104.960 Y71.578 E1.36947
G1 X106.597 Y72.793 E1.42941
G1 X107.946 Y74.321 E1.48935
G1 X108.947 Y76.097 E1.54929
G1 X109.557 Y78.042 E1.60923
G1 X109.750 Y80.036 E1.66814
G1 X109.557 Y81.904 E1.72336
G1 X108.947 Y83.848 E1.78330
G1 X107.946 Y85.624 E1.84324
G1 X106.597 Y87.152 E1.90318
G1 X104.960 Y88.367 E1.96312
G1 X103.106 Y89.215 E2.02306
G1 X100.915 Y89.680 E2.08894
G1 X98.918 Y89.663 E2.14766
G1 X96.927 Y89.226 E2.20759
G1 X95.070 Y88.385 E2.26753
G1 X93.429 Y87.176 E2.32747
G1 X92.170 Y85.783 E2.38269
G1 X91.133 Y84.028 E2.44263
G1 X90.483 Y82.096 E2.50257
G1 X90.250 Y80.071 E2.56251
G1 X90.450 Y78.007 E2.62348
G1 X91.067 Y76.064 E2.68342
G1 X92.075 Y74.293 E2.74336
G1 X93.311 Y72.902 E2.79807
G1 F1800.000 E1.79807
G92 E0
G1 Z4.000 F7800.000
G1 X107.273 Y129.726
G1 F1800.000 E1.00000
G1 X109.610 Y129.727 F1800.000 E1.06874
G1 X109.755 Y129.583 E1.07474
G1 X109.708 Y110.265 E1.64280
G1 X90.292 Y110.265 E2.21373
G1 X90.292 Y129.680 E2.78465
G1 X107.273 Y129.726 E3.28397
G1 X107.722 Y129.987 F7800.000
G1 F1800.000 E2.28397
G92 E0
G1 X93.289 Y72.924 F7800.000
G1 F1800.000 E1.00000
G1 X95.208 Y71.481 F1800.000 E1.07059
G1 X97.078 Y70.670 E1.13053
G1 X99.085 Y70.265 E1.19076
G1 X101.114 Y70.286 E1.25041
G1 X103.104 Y70.729 E1.31035
G1 X104.958 Y71.576 E1.37029
G1 X106.595 Y72.791 E1.43023
G1 X107.944 Y74.319 E1.49017
G1 X108.946 Y76.094 E1.55011
G1 X109.557 Y78.039 E1.61005
G1 X109.750 Y80.046 E1.66936
G1 X109.557 Y81.906 E1.72435
G1 X108.946 Y83.851 E1.78429
G1 X107.944 Y85.626 E1.84423
G1 X106.595 Y87.154 E1.90417
G1 X104.958 Y88.369 E1.96411
G1 X103.104 Y89.216 E2.02405
G1 X100.915 Y89.680 E2.08985
G1 X98.908 Y89.662 E2.14887
G1 X96.917 Y89.223 E2.20881
G1 X95.061 Y88.380 E2.26875
G1 X93.421 Y87.169 E2.32869
G1 X92.168 Y85.781 E2.38368
G1 X91.132 Y84.025 E2.44362
G1 X90.483 Y82.093 E2.50356
G1 X90.250 Y80.068 E2.56350
G1 X90.448 Y78.017 E2.62408
G1 X91.063 Y76.074 E2.68402
