; generated by Slic3r 0.9.7 on 2014-01-04 at 15:54:37

; Re-written based on new ideas.

; layer_height = 0.3
; perimeters = 2
; top_solid_layers = 3
; bottom_solid_layers = 3
; fill_density = 0.65
; perimeter_speed = 55
; infill_speed = 55
; travel_speed = 300
; scale = 1
; nozzle_diameter = 0.4
; filament_diameter = 2.92
; extrusion_multiplier = 1
; perimeters extrusion width = 0.42mm
; infill extrusion width = 0.42mm
; first layer extrusion width = 0.42mm

M190 S110 ; wait for bed temperature to be reached
M104 S235 ; set temperature
G28 ; home all axes
G28 Z0; home Z axis, again
M109 S235 ; wait for temperature to be reached
G90 ; use absolute coordinates
G21 ; set units to millimeters
G92 E0
M82 ; use absolute distances for extrusion
G1 F1800.000 E-2.00000
G92 E0
G1 Z0.300 F18000.000
G1 X80.920 Y119.370
G1 F1800.000 E2.00000
G1 X81.610 Y118.910 F1650.000 E2.01556
G1 X82.680 Y118.300 E2.03867
G1 X83.050 Y118.110 E2.04648
G1 X84.180 Y117.610 E2.06967
G1 X85.340 Y117.200 E2.09275
G1 X86.140 Y116.970 E2.10837
G1 X86.540 Y116.870 E2.11611
G1 X87.340 Y116.710 E2.13142
G1 X88.160 Y116.580 E2.14700
G1 X89.390 Y116.470 E2.17017
G1 X90.210 Y116.450 E2.18557
G1 X109.780 Y116.450 E2.55280
G1 X110.600 Y116.470 E2.56819
G1 X111.830 Y116.580 E2.59137
G1 X112.240 Y116.640 E2.59914
G1 X113.450 Y116.870 E2.62226
G1 X113.850 Y116.970 E2.62999
G1 X114.650 Y117.200 E2.64561
G1 X115.810 Y117.610 E2.66870
G1 X116.940 Y118.110 E2.69189
G1 X117.310 Y118.300 E2.69969
G1 X118.380 Y118.910 E2.72281
G1 X119.070 Y119.370 E2.73837
G1 X119.730 Y119.850 E2.75368
G1 X120.680 Y120.650 E2.77699
G1 X121.280 Y121.210 E2.79239
G1 X122.110 Y122.120 E2.81550
G1 X122.640 Y122.760 E2.83109
G1 X123.120 Y123.420 E2.84641
G1 X123.580 Y124.110 E2.86197
G1 X124.190 Y125.180 E2.88508
G1 X124.380 Y125.550 E2.89289
G1 X124.720 Y126.300 E2.90834
G1 X124.880 Y126.680 E2.91608
G1 X125.160 Y127.450 E2.93145
G1 X125.520 Y128.640 E2.95478
G1 X125.620 Y129.040 E2.96252
G1 X125.780 Y129.840 E2.97783
G1 X125.910 Y130.660 E2.99341
G1 X126.020 Y131.890 E3.01658
G1 X126.040 Y132.710 E3.03197
G1 X126.040 Y152.280 E3.39921
G1 X126.020 Y153.100 E3.41460
G1 X125.910 Y154.330 E3.43778
G1 X125.850 Y154.740 E3.44555
G1 X125.620 Y155.950 E3.46866
G1 X125.520 Y156.350 E3.47640
G1 X125.290 Y157.150 E3.49202
G1 X124.880 Y158.310 E3.51511
G1 X124.380 Y159.440 E3.53830
G1 X124.190 Y159.810 E3.54610
G1 X123.790 Y160.530 E3.56156
G1 X123.350 Y161.230 E3.57707
G1 X122.640 Y162.230 E3.60009
G1 X122.380 Y162.550 E3.60782
G1 X121.840 Y163.180 E3.62339
G1 X121.280 Y163.780 E3.63880
G1 X120.680 Y164.340 E3.65420
G1 X119.730 Y165.140 E3.67750
G1 X119.070 Y165.620 E3.69282
G1 X118.380 Y166.080 E3.70838
G1 X118.030 Y166.290 E3.71604
G1 X116.940 Y166.880 E3.73930
G1 X115.810 Y167.380 E3.76248
G1 X114.650 Y167.790 E3.78557
G1 X113.850 Y168.020 E3.80119
G1 X113.450 Y168.120 E3.80893
G1 X112.650 Y168.280 E3.82424
G1 X111.830 Y168.410 E3.83982
G1 X110.600 Y168.520 E3.86299
G1 X109.780 Y168.540 E3.87838
G1 X90.210 Y168.540 E4.24562
G1 X89.390 Y168.520 E4.26101
G1 X88.160 Y168.410 E4.28418
G1 X87.750 Y168.350 E4.29196
G1 X86.540 Y168.120 E4.31507
G1 X86.140 Y168.020 E4.32281
G1 X85.340 Y167.790 E4.33843
G1 X84.180 Y167.380 E4.36152
G1 X83.050 Y166.880 E4.38471
G1 X82.680 Y166.690 E4.39251
G1 X81.610 Y166.080 E4.41562
G1 X80.920 Y165.620 E4.43118
G1 X80.260 Y165.140 E4.44650
G1 X79.310 Y164.340 E4.46980
G1 X78.710 Y163.780 E4.48521
G1 X77.880 Y162.870 E4.50832
G1 X77.350 Y162.230 E4.52391
G1 X76.870 Y161.570 E4.53923
G1 X76.410 Y160.880 E4.55479
G1 X75.800 Y159.810 E4.57790
G1 X75.610 Y159.440 E4.58571
G1 X75.270 Y158.690 E4.60116
G1 X75.110 Y158.310 E4.60889
G1 X74.830 Y157.540 E4.62427
G1 X74.470 Y156.350 E4.64760
G1 X74.370 Y155.950 E4.65534
G1 X74.210 Y155.150 E4.67065
G1 X74.080 Y154.330 E4.68623
G1 X73.970 Y153.100 E4.70940
G1 X73.950 Y152.280 E4.72479
G1 X73.950 Y132.710 E5.09203
G1 X73.970 Y131.890 E5.10742
G1 X74.080 Y130.660 E5.13059
G1 X74.140 Y130.250 E5.13837
G1 X74.370 Y129.040 E5.16148
G1 X74.470 Y128.640 E5.16922
G1 X74.700 Y127.840 E5.18484
G1 X75.110 Y126.680 E5.20793
G1 X75.610 Y125.550 E5.23111
G1 X75.800 Y125.180 E5.23892
G1 X76.410 Y124.110 E5.26203
G1 X76.870 Y123.420 E5.27759
G1 X77.350 Y122.760 E5.29291
G1 X78.150 Y121.810 E5.31621
G1 X78.710 Y121.210 E5.33161
G1 X79.310 Y120.650 E5.34702
G1 X80.260 Y119.850 E5.37032
G1 X80.869 Y119.407 E5.38446
G1 X80.920 Y119.370 E5.38564
G1 X81.030 Y119.800 F18000.000
G1 X82.060 Y119.130 F1650.000 E5.40869
G1 X82.770 Y118.730 E5.42399
G1 X83.130 Y118.540 E5.43162
G1 X83.870 Y118.200 E5.44691
G1 X84.620 Y117.890 E5.46213
G1 X85.390 Y117.620 E5.47745
G1 X86.180 Y117.390 E5.49289
G1 X87.370 Y117.130 E5.51574
G1 X88.180 Y117.000 E5.53114
G1 X88.580 Y116.960 E5.53868
G1 X89.390 Y116.890 E5.55394
G1 X90.210 Y116.870 E5.56933
G1 X109.780 Y116.870 E5.93657
G1 X110.600 Y116.890 E5.95196
G1 X111.810 Y117.000 E5.97476
G1 X112.220 Y117.060 E5.98253
G1 X113.020 Y117.210 E5.99781
G1 X113.810 Y117.390 E6.01301
G1 X114.600 Y117.620 E6.02845
G1 X115.370 Y117.890 E6.04376
G1 X116.120 Y118.200 E6.05899
G1 X116.860 Y118.540 E6.07427
G1 X117.930 Y119.130 E6.09720
G1 X118.620 Y119.570 E6.11256
G1 X119.290 Y120.040 E6.12792
G1 X120.240 Y120.810 E6.15086
G1 X120.830 Y121.370 E6.16613
G1 X121.680 Y122.250 E6.18909
G1 X122.450 Y123.200 E6.21204
G1 X123.140 Y124.210 E6.23499
G1 X123.360 Y124.560 E6.24275
G1 X123.760 Y125.270 E6.25804
G1 X123.950 Y125.630 E6.26568
G1 X124.290 Y126.370 E6.28096
G1 X124.600 Y127.120 E6.29619
G1 X124.990 Y128.280 E6.31915
G1 X125.280 Y129.470 E6.34214
G1 X125.490 Y130.680 E6.36518
G1 X125.600 Y131.890 E6.38798
G1 X125.620 Y132.710 E6.40337
G1 X125.620 Y152.280 E6.77061
G1 X125.600 Y153.100 E6.78600
G1 X125.490 Y154.310 E6.80880
G1 X125.430 Y154.720 E6.81658
G1 X125.280 Y155.520 E6.83185
G1 X124.990 Y156.710 E6.85484
G1 X124.740 Y157.480 E6.87003
G1 X124.450 Y158.250 E6.88547
G1 X123.950 Y159.360 E6.90831
G1 X123.760 Y159.720 E6.91595
G1 X123.360 Y160.430 E6.93124
G1 X122.690 Y161.460 E6.95430
G1 X122.200 Y162.110 E6.96958
G1 X121.680 Y162.740 E6.98491
G1 X121.120 Y163.330 E7.00017
G1 X120.240 Y164.180 E7.02313
G1 X119.290 Y164.950 E7.04608
G1 X118.620 Y165.420 E7.06143
G1 X117.930 Y165.860 E7.07679
G1 X117.580 Y166.060 E7.08435
G1 X116.860 Y166.450 E7.09972
G1 X115.750 Y166.950 E7.12257
G1 X114.600 Y167.370 E7.14554
G1 X113.810 Y167.600 E7.16098
G1 X112.620 Y167.860 E7.18384
G1 X111.810 Y167.990 E7.19923
G1 X110.600 Y168.100 E7.22203
G1 X109.780 Y168.120 E7.23742
G1 X90.210 Y168.120 E7.60466
G1 X89.390 Y168.100 E7.62005
G1 X88.180 Y167.990 E7.64285
G1 X87.770 Y167.930 E7.65063
G1 X86.970 Y167.780 E7.66590
G1 X86.180 Y167.600 E7.68110
G1 X85.390 Y167.370 E7.69654
G1 X84.620 Y167.100 E7.71186
G1 X83.870 Y166.790 E7.72709
G1 X83.130 Y166.450 E7.74237
G1 X82.060 Y165.860 E7.76530
G1 X81.370 Y165.420 E7.78065
G1 X80.700 Y164.950 E7.79601
G1 X79.750 Y164.180 E7.81896
G1 X79.160 Y163.620 E7.83422
G1 X78.310 Y162.740 E7.85718
G1 X77.540 Y161.790 E7.88013
G1 X76.850 Y160.780 E7.90308
G1 X76.630 Y160.430 E7.91084
G1 X76.230 Y159.720 E7.92613
G1 X76.040 Y159.360 E7.93377
G1 X75.700 Y158.620 E7.94905
G1 X75.390 Y157.870 E7.96428
G1 X75.000 Y156.710 E7.98725
G1 X74.710 Y155.520 E8.01023
G1 X74.500 Y154.310 E8.03328
G1 X74.390 Y153.100 E8.05608
G1 X74.370 Y152.280 E8.07147
G1 X74.370 Y132.710 E8.43870
G1 X74.390 Y131.890 E8.45410
G1 X74.500 Y130.680 E8.47690
G1 X74.560 Y130.270 E8.48467
G1 X74.710 Y129.470 E8.49994
G1 X75.000 Y128.280 E8.52293
G1 X75.250 Y127.510 E8.53812
G1 X75.540 Y126.740 E8.55356
G1 X76.040 Y125.630 E8.57641
G1 X76.230 Y125.270 E8.58404
G1 X76.630 Y124.560 E8.59934
G1 X77.300 Y123.530 E8.62239
G1 X77.790 Y122.880 E8.63767
G1 X78.310 Y122.250 E8.65300
G1 X78.870 Y121.660 E8.66826
G1 X79.750 Y120.810 E8.69122
G1 X80.380 Y120.290 E8.70655
G1 X80.979 Y119.837 E8.72065
G1 X81.030 Y119.800 E8.72183
G1 X81.480 Y120.000 F18000.000
G1 X82.150 Y119.560 F1650.000 E8.73687
G1 X83.210 Y118.970 E8.75963
G1 X84.310 Y118.460 E8.78238
G1 X85.060 Y118.180 E8.79741
G1 X85.830 Y117.930 E8.81260
G1 X87.000 Y117.630 E8.83526
G1 X88.200 Y117.420 E8.85813
G1 X89.000 Y117.340 E8.87321
G1 X89.400 Y117.310 E8.88074
G1 X90.210 Y117.290 E8.89594
G1 X109.780 Y117.290 E9.26318
G1 X110.590 Y117.310 E9.27838
G1 X111.790 Y117.420 E9.30100
G1 X112.190 Y117.480 E9.30859
G1 X112.990 Y117.630 E9.32386
G1 X113.770 Y117.820 E9.33893
G1 X114.930 Y118.180 E9.36172
G1 X115.680 Y118.460 E9.37674
G1 X116.780 Y118.970 E9.39949
G1 X117.840 Y119.560 E9.42226
G1 X118.180 Y119.780 E9.42986
G1 X119.170 Y120.480 E9.45261
G1 X119.480 Y120.730 E9.46008
G1 X120.100 Y121.250 E9.47527
G1 X120.680 Y121.810 E9.49040
G1 X121.240 Y122.390 E9.50553
G1 X121.760 Y123.010 E9.52071
G1 X122.010 Y123.320 E9.52818
G1 X122.490 Y123.980 E9.54350
G1 X122.930 Y124.650 E9.55854
G1 X123.520 Y125.710 E9.58130
G1 X124.030 Y126.810 E9.60406
G1 X124.310 Y127.560 E9.61908
G1 X124.670 Y128.720 E9.64187
G1 X124.860 Y129.500 E9.65694
G1 X125.070 Y130.700 E9.67980
G1 X125.180 Y131.900 E9.70241
G1 X125.200 Y132.710 E9.71761
G1 X125.200 Y152.280 E10.08485
G1 X125.180 Y153.090 E10.10005
G1 X125.150 Y153.490 E10.10758
G1 X125.070 Y154.290 E10.12267
G1 X124.940 Y155.090 E10.13788
G1 X124.770 Y155.880 E10.15304
G1 X124.440 Y157.040 E10.17567
G1 X124.170 Y157.810 E10.19098
G1 X123.870 Y158.550 E10.20597
G1 X123.520 Y159.280 E10.22116
G1 X122.930 Y160.340 E10.24392
G1 X122.490 Y161.010 E10.25897
G1 X122.010 Y161.670 E10.27428
G1 X121.240 Y162.600 E10.29694
G1 X120.680 Y163.180 E10.31207
G1 X120.100 Y163.740 E10.32720
G1 X119.170 Y164.510 E10.34985
G1 X118.510 Y164.990 E10.36517
G1 X117.840 Y165.430 E10.38021
G1 X116.780 Y166.020 E10.40297
G1 X115.680 Y166.530 E10.42573
G1 X114.930 Y166.810 E10.44075
G1 X114.160 Y167.060 E10.45594
G1 X112.990 Y167.360 E10.47861
G1 X111.790 Y167.570 E10.50147
G1 X110.990 Y167.650 E10.51655
G1 X110.590 Y167.680 E10.52408
G1 X109.780 Y167.700 E10.53928
G1 X90.210 Y167.700 E10.90652
G1 X89.400 Y167.680 E10.92172
G1 X88.200 Y167.570 E10.94434
G1 X87.800 Y167.510 E10.95193
G1 X87.000 Y167.360 E10.96720
G1 X86.220 Y167.170 E10.98227
G1 X85.060 Y166.810 E11.00506
G1 X84.310 Y166.530 E11.02008
G1 X83.210 Y166.020 E11.04283
G1 X82.150 Y165.430 E11.06560
G1 X81.810 Y165.210 E11.07320
G1 X80.820 Y164.510 E11.09595
G1 X80.510 Y164.260 E11.10342
G1 X79.890 Y163.740 E11.11861
G1 X79.310 Y163.180 E11.13374
G1 X78.750 Y162.600 E11.14887
G1 X78.230 Y161.980 E11.16405
G1 X77.980 Y161.670 E11.17152
G1 X77.500 Y161.010 E11.18684
G1 X77.060 Y160.340 E11.20188
G1 X76.470 Y159.280 E11.22464
G1 X75.960 Y158.180 E11.24740
G1 X75.680 Y157.430 E11.26242
G1 X75.320 Y156.270 E11.28521
G1 X75.130 Y155.490 E11.30028
G1 X74.920 Y154.290 E11.32314
G1 X74.810 Y153.090 E11.34575
G1 X74.790 Y152.280 E11.36095
G1 X74.790 Y132.710 E11.72819
G1 X74.810 Y131.900 E11.74339
G1 X74.840 Y131.500 E11.75092
G1 X74.920 Y130.700 E11.76601
G1 X75.050 Y129.900 E11.78122
G1 X75.220 Y129.110 E11.79638
G1 X75.550 Y127.950 E11.81901
G1 X75.820 Y127.180 E11.83432
G1 X76.120 Y126.440 E11.84931
G1 X76.470 Y125.710 E11.86450
G1 X77.060 Y124.650 E11.88727
G1 X77.500 Y123.980 E11.90231
G1 X77.980 Y123.320 E11.91762
G1 X78.750 Y122.390 E11.94028
G1 X79.310 Y121.810 E11.95541
G1 X79.890 Y121.250 E11.97054
G1 X80.820 Y120.480 E11.99319
G1 X81.429 Y120.037 E12.00733
G1 X81.480 Y120.000 E12.00851
G1 F1800.000 E10.00851
G92 E0
G1 X90.631 Y151.869 F18000.000
G1 F1800.000 E2.00000
G1 X90.631 Y133.131 F1650.000 E2.35163
G1 X109.369 Y133.131 E2.70325
G1 X109.369 Y151.869 E3.05488
G1 X90.694 Y151.869 E3.40533
G1 X90.631 Y151.869 E3.40651
G1 X90.212 Y152.288 F18000.000
G1 X90.212 Y132.712 F1650.000 E3.77386
G1 X109.788 Y132.712 E4.14120
G1 X109.788 Y152.288 E4.50855
G1 X90.275 Y152.288 E4.87472
G1 X90.212 Y152.288 E4.87590
G1 X89.847 Y152.077 F18000.000
G1 F1800.000 E2.87590
G92 E0
G1 X91.183 Y151.584 F18000.000
G1 F1800.000 E2.00000
G1 X90.916 Y151.317 F1650.000 E2.00713
G1 X90.916 Y150.720 E2.01841
G1 X91.780 Y151.584 E2.04149
G1 X92.376 Y151.584 E2.05277
G1 X90.916 Y150.123 E2.09180
G1 X90.916 Y149.527 E2.10307
G1 X92.973 Y151.584 E2.15805
G1 X93.570 Y151.584 E2.16933
G1 X90.916 Y148.930 E2.24026
G1 X90.916 Y148.333 E2.25154
G1 X94.167 Y151.584 E2.33842
G1 X94.763 Y151.584 E2.34970
G1 X90.916 Y147.737 E2.45253
G1 X90.916 Y147.140 E2.46381
G1 X95.360 Y151.584 E2.58258
G1 X95.957 Y151.584 E2.59386
G1 X90.916 Y146.543 E2.72859
G1 X90.916 Y145.947 E2.73987
G1 X96.553 Y151.584 E2.89055
G1 X97.150 Y151.584 E2.90182
G1 X90.916 Y145.350 E3.06845
G1 X90.916 Y144.753 E3.07973
G1 X97.747 Y151.584 E3.26231
G1 X98.343 Y151.584 E3.27359
G1 X90.916 Y144.157 E3.47211
G1 X90.916 Y143.560 E3.48339
G1 X98.940 Y151.584 E3.69787
G1 X99.537 Y151.584 E3.70915
G1 X90.916 Y142.963 E3.93957
G1 X90.916 Y142.367 E3.95085
G1 X100.133 Y151.584 E4.19723
G1 X100.730 Y151.584 E4.20851
G1 X90.916 Y141.770 E4.47083
G1 X90.916 Y141.173 E4.48211
G1 X101.327 Y151.584 E4.76039
G1 X101.923 Y151.584 E4.77166
G1 X90.916 Y140.577 E5.06589
G1 X90.916 Y139.980 E5.07717
G1 X102.520 Y151.584 E5.38734
G1 X103.117 Y151.584 E5.39862
G1 X90.916 Y139.383 E5.72474
G1 X90.916 Y138.786 E5.73602
G1 X103.713 Y151.584 E6.07810
G1 X104.310 Y151.584 E6.08938
G1 X90.916 Y138.190 E6.44740
G1 X90.916 Y137.593 E6.45868
G1 X104.907 Y151.584 E6.83265
G1 X105.504 Y151.584 E6.84393
G1 X90.916 Y136.996 E7.23385
G1 X90.916 Y136.400 E7.24513
G1 X106.100 Y151.584 E7.65100
G1 X106.697 Y151.584 E7.66228
G1 X90.916 Y135.803 E8.08411
G1 X90.916 Y135.206 E8.09538
G1 X107.294 Y151.584 E8.53316
G1 X107.890 Y151.584 E8.54443
G1 X90.916 Y134.610 E8.99816
G1 X90.916 Y134.013 E9.00943
G1 X108.487 Y151.584 E9.47910
G1 X109.084 Y151.583 E9.49038
G1 X90.917 Y133.416 E9.97600
G1 X91.513 Y133.416 E9.98727
G1 X109.084 Y150.987 E10.45695
G1 X109.084 Y150.390 E10.46822
G1 X92.110 Y133.416 E10.92194
G1 X92.706 Y133.416 E10.93322
G1 X109.084 Y149.794 E11.37100
G1 X109.084 Y149.197 E11.38227
G1 X93.303 Y133.416 E11.80410
G1 X93.900 Y133.416 E11.81538
G1 X109.084 Y148.600 E12.22125
G1 X109.084 Y148.003 E12.23252
G1 X94.496 Y133.416 E12.62245
G1 X95.093 Y133.416 E12.63373
G1 X109.084 Y147.407 E13.00770
G1 X109.084 Y146.810 E13.01898
G1 X95.690 Y133.416 E13.37700
G1 X96.286 Y133.416 E13.38828
G1 X109.084 Y146.214 E13.73035
G1 X109.084 Y145.617 E13.74163
G1 X96.883 Y133.416 E14.06776
G1 X97.480 Y133.416 E14.07903
G1 X109.084 Y145.020 E14.38921
G1 X109.084 Y144.423 E14.40049
G1 X98.077 Y133.416 E14.69471
G1 X98.673 Y133.416 E14.70599
G1 X109.084 Y143.827 E14.98426
G1 X109.084 Y143.230 E14.99554
G1 X99.270 Y133.416 E15.25787
G1 X99.867 Y133.416 E15.26915
G1 X109.084 Y142.633 E15.51552
G1 X109.084 Y142.037 E15.52680
G1 X100.463 Y133.416 E15.75723
G1 X101.060 Y133.416 E15.76851
G1 X109.084 Y141.440 E15.98298
G1 X109.084 Y140.843 E15.99426
G1 X101.657 Y133.416 E16.19279
G1 X102.253 Y133.416 E16.20406
G1 X109.084 Y140.247 E16.38664
G1 X109.084 Y139.650 E16.39792
G1 X102.850 Y133.416 E16.56455
G1 X103.447 Y133.416 E16.57583
G1 X109.084 Y139.053 E16.72651
G1 X109.084 Y138.457 E16.73779
G1 X104.043 Y133.416 E16.87251
G1 X104.640 Y133.416 E16.88379
G1 X109.084 Y137.860 E17.00257
G1 X109.084 Y137.263 E17.01385
G1 X105.237 Y133.416 E17.11667
G1 X105.833 Y133.416 E17.12795
G1 X109.084 Y136.667 E17.21483
G1 X109.084 Y136.070 E17.22611
G1 X106.430 Y133.416 E17.29704
G1 X107.027 Y133.416 E17.30832
G1 X109.084 Y135.473 E17.36330
G1 X109.084 Y134.876 E17.37458
G1 X107.624 Y133.416 E17.41361
G1 X108.220 Y133.416 E17.42489
G1 X109.084 Y134.280 E17.44797
G1 X109.084 Y133.683 E17.45925
G1 X108.817 Y133.416 E17.46638
M104 S230 ; set temperature
G1 F1800.000 E15.46638
G92 E0
G1 Z0.600 F18000.000
G28 X0  ; home X axis
G0 Y275; move y axis to +275
M104 S0; turn off temperature
M140 S0; turn off bed
M84     ; disable motors
M107  ; Turn fan off
; filament used = 26.4mm (0.2cm3)
